X: 9085
T: Da Nippin Grund
R: reel
M: 4/4
K: Gmajor
A|:BGBd BGGA|BGBd eAAc|BGBc dBGB|c2 A>c BG GA:|
|:B>d (3ddd gagd|B>d (3ddd eAAc|B>d (3ddd gagd|1 BdAc BG GA:|2 BdAc BG G2||

